X: 4352
M: 6/8
L: 1/8
K: D
|:\
E2F G2A |[1 GFE D2F :|\
[2 DFA d2 |] d |\
E2E F2F | GFA G2^A |\
e^df e2A | d2z z2z |]


